icons/general-upload-3-filled.svg

<svg viewBox="0 0 24 24"><path fill="currentColor" fill-rule="evenodd" d="M2.4 18a3.6 3.6 0 0 0 3.6 3.6h12a3.6 3.6 0 0 0 3.6-3.6v-12a3.6 3.6 0 0 0-3.6-3.6h-12a3.6 3.6 0 0 0-3.6 3.6zm9.6 1.5a1 1 0 0 1-1-1v-5.2l-2.6 2.7a1 1 0 0 1-1.4-1.4l4.3-4.3a1 1 0 0 1 1.4 0l4.3 4.3a1 1 0 0 1-1.4 1.4l-2.6-2.7v5.2a1 1 0 0 1-1 1Zm7.5-13.2q0-.8-.5-1.3a2 2 0 0 0-1.2-.5h-11.5q-.8 0-1.3.5a2 2 0 0 0-.5 1.3v1.7a1 1 0 0 0 .5.5h14a1 1 0 0 0 .5-.5z" clip-rule="evenodd"/></svg>

<svg viewBox="0 0 24 24"><path fill="currentColor" fill-rule="evenodd" d="M2.4 18A3.6 3.6 0 0 0 6 21.6h12a3.6 3.6 0 0 0 3.6-3.6V6A3.6 3.6 0 0 0 18 2.4H6A3.6 3.6 0 0 0 2.4 6zm9.6 1.5a1 1 0 0 1-1-1v-5.2L8.4 16A1 1 0 0 1 7 14.6l4.3-4.3a1 1 0 0 1 1.4 0l4.3 4.3a1 1 0 0 1-1.4 1.4L13 13.3v5.2a1 1 0 0 1-1 1m7.5-13.2q0-.8-.5-1.3a2 2 0 0 0-1.2-.5H6.3q-.8 0-1.3.5a2 2 0 0 0-.5 1.3V8l.5.5h14l.5-.5z" clip-rule="evenodd"/></svg>
